!! J.S. Bach "Bouree" from Partita No. 3, for solo violin, BWV 1006.
!! From 'Neue Ausgabe Saemtlicher Werke' Serie VI: Kammermusikwerke,
!! Band 1 ('Werke fuer Violine') Baerenreiter Kassel (Basel) 1958; p.61
!! This file has been error-checked using the double-entry method.
!! NOTE: The repeats at the end of bar 16 and at the end of the work
!!       have been expanded in this encoding.
!! NOTE: This 'monophonic' work has been encoded in a two-voice format.
**kern	**kern
*M2/2	*M2/2
4e	4b
=1	=1
4a	4cc#
2.r	{8a
.	8b
.	8cc#
.	8dd#
.	4ee}
=2	=2
1r	{8g#
.	8b
.	4ee}
.	{8ee
.	8dd#
.	4ee}
=3	=3
1r	8f#
.	8g#
.	8a
.	8b
.	8cc#
.	8a
.	4b
=4	=4
1r	{8a
.	8g#
.	8f#
.	8g#}
.	4e
.	8gg#
.	8ee
=5	=5
1r	8ff#
.	8dd#
.	{8b
.	8cc#
.	8dd#
.	8ee
.	8ff#}
.	8aa
=6	=6
1r	8gg#
.	8ee
.	{8b
.	8dd#
.	8ee
.	8ff#
.	8gg#}
.	8bb
=7	=7
1r	8ff#
.	8dd#
.	{8b
.	8cc#
.	8dd#
.	8ee
.	8ff#}
.	8aa
=8	=8
1r	8gg#
.	8ee
.	{8b
.	8dd#
.	8ee
.	8ff#
.	8gg#}
.	8bb
=9	=9
1r	{8ee
.	8dd#
.	8cc#
.	8dd#}
.	{8ee
.	8dd#
.	8cc#
.	8b}
=10	=10
1r	{8a#
.	8g#
.	8f#
.	8g#
.	8a
.	8b
.	8cc#
.	8dd#}
=11	=11
1r	{8ee
.	8dd#
.	8cc#
.	8dd#}
.	{8ee
.	8dd#
.	8cc#
.	8b}
=12	=12
1r	{8a#
.	8g#
.	8f#
.	8g#
.	8a#
.	8b
.	8cc#
.	8ee}
=13	=13
1r	{8dd#
.	8cc#
.	8b}
.	8cc#
.	8dd#
.	8ee
.	8ff#
.	8an
=14	=14
1r	8g#
.	8b
.	8ee
.	8dd#
.	{8ee
.	8aa#
.	8bb}
.	8cc#
=15	=15
1r	{8e
.	8dd#
.	8cc#
.	8b}
.	{8f#
.	8cc#
.	8b
.	8a#}
=16	=16
2.r	8b
.	8f#
.	8d#
.	8f#
.	4B
4e	4b
=17	=17
4a	4cc#
2.r	{8a
.	8b
.	8cc#
.	8dd#
.	4ee}
=18	=18
1r	{8g#
.	8b
.	4ee}
.	{8ee
.	8dd#
.	4ee}
=19	=19
1r	8f#
.	8g#
.	8a
.	8b
.	8cc#
.	8a
.	4b
=20	=20
1r	{8a
.	8g#
.	8f#
.	8g#}
.	4e
.	8gg#
.	8ee
=21	=21
1r	8ff#
.	8dd#
.	{8b
.	8cc#
.	8dd#
.	8ee
.	8ff#}
.	8aa
=22	=22
1r	8gg#
.	8ee
.	{8b
.	8dd#
.	8ee
.	8ff#
.	8gg#}
.	8bb
=23	=23
1r	8ff#
.	8dd#
.	{8b
.	8cc#
.	8dd#
.	8ee
.	8ff#}
.	8aa
=24	=24
1r	8gg#
.	8ee
.	{8b
.	8dd#
.	8ee
.	8ff#
.	8gg#}
.	8bb
=25	=25
1r	{8ee
.	8dd#
.	8cc#
.	8dd#}
.	{8ee
.	8dd#
.	8cc#
.	8b}
=26	=26
1r	{8a#
.	8g#
.	8f#
.	8g#
.	8a
.	8b
.	8cc#
.	8dd#}
=27	=27
1r	{8ee
.	8dd#
.	8cc#
.	8dd#}
.	{8ee
.	8dd#
.	8cc#
.	8b}
=28	=28
1r	{8a#
.	8g#
.	8f#
.	8g#
.	8a#
.	8b
.	8cc#
.	8ee}
=29	=29
1r	{8dd#
.	8cc#
.	8b}
.	8cc#
.	8dd#
.	8ee
.	8ff#
.	8an
=30	=30
1r	8g#
.	8b
.	8ee
.	8dd#
.	{8ee
.	8aa#
.	8bb}
.	8cc#
=31	=31
1r	{8e
.	8dd#
.	8cc#
.	8b}
.	{8f#
.	8cc#
.	8b
.	8a#}
=32	=32
2.r	8b
.	8f#
.	8d#
.	8f#
.	4B
4b	4ff#
=33	=33
4ee	4gg#
2.r	{8ee
.	8ff#
.	8gg#
.	8aa#
.	4bb}
=34	=34
1r	{8dd#
.	8ff#
.	4bb}
.	{8bb
.	8aa#
.	4bb}
=35	=35
1r	8cc#
.	8ee
.	8aan
.	8cc#
.	8b#
.	8dd#
.	8gg#
.	8ff#
=36	=36
1r	{8ff#
.	8ee
.	8dd#
.	8ee}
.	4cc#
.	8ee
.	8cc#
=37	=37
1r	{8g#
.	8a
.	8b
.	8cc#
.	8ddn}
.	8gg#
.	8bb
.	8dd
=38	=38
1r	{8cc#
.	8b
.	8a
.	8b
.	8cc#}
.	8ee
.	8aa
.	8cc#
=39	=39
1r	{8g#
.	8a
.	8b
.	8cc#
.	8ddn}
.	8gg#
.	8bb
.	8dd
=40	=40
1r	{8cc#
.	8b
.	8a
.	8b
.	8cc#}
.	8ee
.	8aa
.	8cc#
=41	=41
1r	8ddn
.	8b
.	8g#
.	8f#
.	{8e#
.	8g#
.	8b}
.	8dd
=42	=42
1r	8cc#
.	8a
.	8f#
.	8en
.	{8dn
.	8c#
.	8d}
.	8cc#
=43	=43
1r	{8b
.	8aa
.	8gg#
.	8ff#}
.	{8cc#
.	8gg#
.	8ff#
.	8ee#}
=44	=44
1r	8ff#
.	8cc#
.	8a
.	8cc#
.	4f#
.	8aa
.	8ff#
=45	=45
1r	8dd#
.	8ff#
.	{8b
.	8cc#
.	8dd#
.	8ee
.	8ff#}
.	8aa
=46	=46
1r	8gg#
.	8bb
.	{8ee
.	8ff#
.	8gg#
.	8aa
.	8bb}
.	8ddn
=47	=47
1r	8cc#
.	8ee
.	8a
.	8cc#
.	{8ff#
.	8gg#
.	8aa}
.	8ff#
=48	=48
2.r	{8ee
.	8dd#
.	8cc#}
.	8dd#
.	4b
4e	4b
=49	=49
4a	4cc#
2.r	{8a
.	8b
.	8cc#
.	8dd#
.	8ee
.	8ff#}
=50	=50
1r	8dd#
.	8ff#
.	8aa
.	8ff#
.	{8dd#
.	8b}
.	{8cc#
.	8a}
=51	=51
2r	8g#
.	8ee
.	4bb
4b	{8aa
.	8gg#
4r	8ff#
.	8gg#}
=52	=52
2.r	8ee
.	8b
.	8g#
.	8b
.	4e
4b	4ff#
=53	=53
4ee	4gg#
2.r	{8ee
.	8ff#
.	8gg#
.	8aa#
.	4bb}
=54	=54
1r	{8dd#
.	8ff#
.	4bb}
.	{8bb
.	8aa#
.	4bb}
=55	=55
1r	8cc#
.	8ee
.	8aan
.	8cc#
.	8b#
.	8dd#
.	8gg#
.	8ff#
=56	=56
1r	{8ff#
.	8ee
.	8dd#
.	8ee}
.	4cc#
.	8ee
.	8cc#
=57	=57
1r	{8g#
.	8a
.	8b
.	8cc#
.	8ddn}
.	8gg#
.	8bb
.	8dd
=58	=58
1r	{8cc#
.	8b
.	8a
.	8b
.	8cc#}
.	8ee
.	8aa
.	8cc#
=59	=59
1r	{8g#
.	8a
.	8b
.	8cc#
.	8ddn}
.	8gg#
.	8bb
.	8dd
=60	=60
1r	{8cc#
.	8b
.	8a
.	8b
.	8cc#}
.	8ee
.	8aa
.	8cc#
=61	=61
1r	8ddn
.	8b
.	8g#
.	8f#
.	{8e#
.	8g#
.	8b}
.	8dd
=62	=62
1r	8cc#
.	8a
.	8f#
.	8en
.	{8dn
.	8c#
.	8d}
.	8cc#
=63	=63
1r	{8b
.	8aa
.	8gg#
.	8ff#}
.	{8cc#
.	8gg#
.	8ff#
.	8ee#}
=64	=64
1r	8ff#
.	8cc#
.	8a
.	8cc#
.	4f#
.	8aa
.	8ff#
=65	=65
1r	8dd#
.	8ff#
.	{8b
.	8cc#
.	8dd#
.	8ee
.	8ff#}
.	8aa
=66	=66
1r	8gg#
.	8bb
.	{8ee
.	8ff#
.	8gg#
.	8aa
.	8bb}
.	8ddn
=67	=67
1r	8cc#
.	8ee
.	8a
.	8cc#
.	{8ff#
.	8gg#
.	8aa}
.	8ff#
=68	=68
2.r	{8ee
.	8dd#
.	8cc#}
.	8dd#
.	4b
4e	4b
=69	=69
4a	4cc#
2.r	{8a
.	8b
.	8cc#
.	8dd#
.	8ee
.	8ff#}
=70	=70
1r	8dd#
.	8ff#
.	8aa
.	8ff#
.	{8dd#
.	8b}
.	{8cc#
.	8a}
=71	=71
2r	8g#
.	8ee
.	4bb
4b	{8aa
.	8gg#
4r	8ff#
.	8gg#}
=72	=72
2.r	8ee
.	8b
.	8g#
.	8b
.	4e
==	==
*-	*-
